src/assets/outline/Signpost.svg

<svg width="24" height="24" viewBox="0 0 24 24"  xmlns="http://www.w3.org/2000/svg">
<path d="M17.22 9.75H8.96002C8.40002 9.75 7.84002 9.56001 7.40002 9.20001L5.21002 7.45001C4.61002 6.97001 4.27002 6.26 4.27002 5.5C4.27002 4.74 4.61002 4.01999 5.21002 3.54999L7.40002 1.79999C7.84002 1.44999 8.40002 1.25 8.96002 1.25H17.22C18.6 1.25 19.72 2.37 19.72 3.75V7.25C19.72 8.63 18.6 9.75 17.22 9.75ZM8.96002 2.75C8.73002 2.75 8.51003 2.83 8.34003 2.97L6.15002 4.72C5.91002 4.91 5.77002 5.2 5.77002 5.5C5.77002 5.8 5.91002 6.09 6.15002 6.28L8.34003 8.03C8.52003 8.17 8.74002 8.25 8.96002 8.25H17.22C17.77 8.25 18.22 7.8 18.22 7.25V3.75C18.22 3.2 17.77 2.75 17.22 2.75H8.96002Z" />
<path d="M15.0598 19.75H6.7998C5.4198 19.75 4.2998 18.63 4.2998 17.25V13.75C4.2998 12.37 5.4198 11.25 6.7998 11.25H15.0598C15.6298 11.25 16.1798 11.44 16.6198 11.8L18.8098 13.55C19.4098 14.03 19.7498 14.74 19.7498 15.5C19.7498 16.26 19.4098 16.98 18.8098 17.45L16.6198 19.2C16.1798 19.56 15.6298 19.75 15.0598 19.75ZM6.7998 12.75C6.2498 12.75 5.7998 13.2 5.7998 13.75V17.25C5.7998 17.8 6.2498 18.25 6.7998 18.25H15.0598C15.2898 18.25 15.5098 18.17 15.6798 18.03L17.8698 16.28C18.1098 16.09 18.2498 15.8 18.2498 15.5C18.2498 15.2 18.1098 14.91 17.8698 14.72L15.6798 12.97C15.4998 12.83 15.2798 12.75 15.0598 12.75H6.7998Z" />
<path d="M12 12.75C11.59 12.75 11.25 12.41 11.25 12V9C11.25 8.59 11.59 8.25 12 8.25C12.41 8.25 12.75 8.59 12.75 9V12C12.75 12.41 12.41 12.75 12 12.75Z" />
<path d="M12 22.75C11.59 22.75 11.25 22.41 11.25 22V19C11.25 18.59 11.59 18.25 12 18.25C12.41 18.25 12.75 18.59 12.75 19V22C12.75 22.41 12.41 22.75 12 22.75Z" />
<path d="M15 22.75H9C8.59 22.75 8.25 22.41 8.25 22C8.25 21.59 8.59 21.25 9 21.25H15C15.41 21.25 15.75 21.59 15.75 22C15.75 22.41 15.41 22.75 15 22.75Z" />
</svg>

<?xml version="1.0" encoding="UTF-8"?>
<svg width="24" height="24" viewBox="0 0 24 24" xmlns="http://www.w3.org/2000/svg">
 <path d="m17.22 9.75h-8.26c-0.56 0-1.12-0.18999-1.56-0.54999l-2.19-1.75c-0.6-0.48-0.94-1.19-0.94-1.95s0.34-1.48 0.94-1.95l2.19-1.75c0.44-0.35 1-0.54999 1.56-0.54999h8.26c1.38 0 2.5 1.12 2.5 2.5v3.5c0 1.38-1.12 2.5-2.5 2.5zm-8.26-7c-0.23 0-0.44999 0.08-0.61999 0.22l-2.19 1.75c-0.24 0.19-0.38 0.48-0.38 0.78s0.14 0.59 0.38 0.78l2.19 1.75c0.18 0.14 0.39999 0.22 0.61999 0.22h8.26c0.55 0 1-0.45 1-1v-3.5c0-0.55-0.45-1-1-1h-8.26z"/>
 <path d="m15.06 19.75h-8.26c-1.38 0-2.5-1.12-2.5-2.5v-3.5c0-1.38 1.12-2.5 2.5-2.5h8.26c0.57 0 1.12 0.19 1.56 0.55l2.19 1.75c0.6 0.48 0.94 1.19 0.94 1.95s-0.34 1.48-0.94 1.95l-2.19 1.75c-0.44 0.36-0.99 0.55-1.56 0.55zm-8.26-7c-0.55 0-1 0.45-1 1v3.5c0 0.55 0.45 1 1 1h8.26c0.23 0 0.45-0.08 0.62-0.22l2.19-1.75c0.24-0.19 0.38-0.48 0.38-0.78s-0.14-0.59-0.38-0.78l-2.19-1.75c-0.18-0.14-0.4-0.22-0.62-0.22h-8.26z"/>
 <path d="m12 12.75c-0.41 0-0.75-0.34-0.75-0.75v-3c0-0.41 0.34-0.75 0.75-0.75s0.75 0.34 0.75 0.75v3c0 0.41-0.34 0.75-0.75 0.75z"/>
 <path d="m12 22.75c-0.41 0-0.75-0.34-0.75-0.75v-3c0-0.41 0.34-0.75 0.75-0.75s0.75 0.34 0.75 0.75v3c0 0.41-0.34 0.75-0.75 0.75z"/>
 <path d="m15 22.75h-6c-0.41 0-0.75-0.34-0.75-0.75s0.34-0.75 0.75-0.75h6c0.41 0 0.75 0.34 0.75 0.75s-0.34 0.75-0.75 0.75z"/>
</svg>
